app/images/bitcoin.svg

<svg id="Capa_1" enable-background="new 0 0 512 512" height="512" viewBox="0 0 512 512" width="512" xmlns="http://www.w3.org/2000/svg"><g><path d="m437.02 74.98c-48.353-48.351-112.64-74.98-181.02-74.98s-132.667 26.629-181.02 74.98c-48.351 48.353-74.98 112.64-74.98 181.02s26.629 132.667 74.98 181.02c48.353 48.351 112.64 74.98 181.02 74.98s132.667-26.629 181.02-74.98c48.351-48.353 74.98-112.64 74.98-181.02s-26.629-132.667-74.98-181.02zm-181.02 407.02c-124.617 0-226-101.383-226-226s101.383-226 226-226 226 101.383 226 226-101.383 226-226 226z"/><path d="m256 58c-109.178 0-198 88.822-198 198s88.822 198 198 198 198-88.822 198-198-88.822-198-198-198zm0 366c-92.636 0-168-75.364-168-168s75.364-168 168-168 168 75.364 168 168-75.364 168-168 168z"/><path d="m321.835 244.064c9.199-10.312 14.805-23.896 14.805-38.77.001-15.528-6.077-30.159-17.114-41.197-11.038-11.038-25.669-17.117-41.196-17.115h-7.33v-28.982h-30v28.981h-66.039v30h24.498v158.037h-24.498v30h66.039v28.982h30v-28.981h15.332c36.231 0 65.707-29.478 65.707-65.71.002-17.498-6.847-33.985-19.286-46.425-3.361-3.362-7.025-6.3-10.918-8.82zm-92.376-67.083h48.872c7.515 0 14.61 2.957 19.981 8.328s8.329 12.468 8.328 19.983c0 15.457-12.451 28.052-27.849 28.301h-49.333v-56.612zm56.873 158.038h-56.873v-71.413l56.874-.012c9.481 0 18.434 3.729 25.206 10.502s10.501 15.726 10.5 25.211c0 19.691-16.018 35.712-35.707 35.712z"/></g></svg>

<svg height="512" width="512" xmlns="http://www.w3.org/2000/svg"><path d="M437.02 74.98C388.667 26.629 324.38 0 256 0S123.333 26.629 74.98 74.98C26.629 123.333 0 187.62 0 256s26.629 132.667 74.98 181.02C123.333 485.371 187.62 512 256 512s132.667-26.629 181.02-74.98C485.371 388.667 512 324.38 512 256s-26.629-132.667-74.98-181.02zM256 482C131.383 482 30 380.617 30 256S131.383 30 256 30s226 101.383 226 226-101.383 226-226 226z"/><path d="M256 58C146.822 58 58 146.822 58 256s88.822 198 198 198 198-88.822 198-198S365.178 58 256 58zm0 366c-92.636 0-168-75.364-168-168S163.364 88 256 88s168 75.364 168 168-75.364 168-168 168z"/><path d="M321.835 244.064c9.199-10.312 14.805-23.896 14.805-38.77.001-15.528-6.077-30.159-17.114-41.197-11.038-11.038-25.669-17.117-41.196-17.115H271V118h-30v28.981h-66.039v30h24.498v158.037h-24.498v30H241V394h30v-28.981h15.332c36.231 0 65.707-29.478 65.707-65.71.002-17.498-6.847-33.985-19.286-46.425a66.559 66.559 0 0 0-10.918-8.82zm-92.376-67.083h48.872c7.515 0 14.61 2.957 19.981 8.328s8.329 12.468 8.328 19.983c0 15.457-12.451 28.052-27.849 28.301h-49.333v-56.612zm56.873 158.038h-56.873v-71.413l56.874-.012c9.481 0 18.434 3.729 25.206 10.502s10.501 15.726 10.5 25.211c0 19.691-16.018 35.712-35.707 35.712z"/></svg>
